X:87
T:West Virginia Gals
S:Bernie Waugh
R:Reel
M:4/4
L:1/8
K:A
|:\
"A"Aceg abaf|edef "G"=geg2|"A"Aceg abaf|"F#m"ede2"G"[_Bf][=B2=g2]B|
"A"Aceg abaf|edef "G"=geg2|"A"efed "F#m"cBAA|"E"B2{A}B2"A"A4:|
|:\
"A"A,3B,C2EF/G/|"Am"A2A2B=c3|"G"[=G,4=G4]BAB=c|"Em"d=c d2[B4=g4]|
"A"A,3B,C2EF/G/|A2AB "D"c2d2|"A"edef "G"=gfed|"E"cAB2"A"A4:|

